assets/shop-tab/Asset/Croma.svg

<svg width="93" height="52" viewBox="0 0 93 52" fill="none" xmlns="http://www.w3.org/2000/svg">
<path fill-rule="evenodd" clip-rule="evenodd" d="M0 8C0 3.58172 3.58172 0 8 0H85C89.4183 0 93 3.58172 93 8V21.1C90.7178 21.5633 89 23.581 89 26C89 28.419 90.7178 30.4367 93 30.9V44C93 48.4183 89.4183 52 85 52H8C3.58172 52 0 48.4183 0 44V30.9C2.28224 30.4367 4 28.419 4 26C4 23.581 2.28224 21.5633 0 21.1V8Z" fill="#51A9A4"/>
<mask id="mask0_634_1266" style="mask-type:alpha" maskUnits="userSpaceOnUse" x="20" y="20" width="9" height="11">
<path fill-rule="evenodd" clip-rule="evenodd" d="M20 20.9385H28.3861V30.6607H20V20.9385Z" fill="white"/>
</mask>
<g mask="url(#mask0_634_1266)">
<path fill-rule="evenodd" clip-rule="evenodd" d="M28.3861 27.2383C28.2743 28.0939 28.0134 28.7939 27.6034 29.3383C26.8952 30.2327 26.0007 30.6994 24.7707 30.6605C23.2053 30.6216 22.3481 30.0383 21.3418 29.0272C20.4845 28.1716 20 26.8105 20 25.7994C20 25.0994 20.1864 24.6716 20.4845 23.9327C20.82 23.155 21.1927 22.7661 21.6772 22.2605C22.609 21.3272 23.7271 20.8994 24.8826 20.8994C25.8143 20.8994 26.597 21.1327 27.2307 21.5994C27.7152 21.9883 27.9761 22.455 27.9761 22.9994C27.9761 23.3105 27.8643 23.5439 27.7152 23.7772C27.5288 23.9716 27.3052 24.0883 27.0443 24.0883C26.7834 24.0883 26.5598 23.9716 26.3734 23.7772C26.1871 23.5439 26.0752 23.3105 26.0752 22.9994C26.0752 22.6883 26.2243 22.3772 26.5225 22.0272L26.597 21.8327C26.597 21.4439 26.038 21.2883 24.9198 21.2494C23.7644 21.2105 23.0563 21.5216 22.609 22.0661C22.0872 22.6883 22.0127 23.855 22.0127 25.4883V26.5383C22.0127 27.705 22.0499 28.5994 22.3108 29.1827C22.6463 29.9216 23.429 30.3494 24.5844 30.3494C25.5162 30.3494 26.2989 30.0772 26.8952 29.5327C27.4916 28.9883 27.8643 28.2105 28.0506 27.2383H28.3861Z" fill="white"/>
</g>
<path fill-rule="evenodd" clip-rule="evenodd" d="M32.2624 23.583C32.3742 23.0386 32.5979 22.5719 32.8588 22.1441C33.4178 21.3275 34.0887 20.8997 34.9087 20.8997C35.3559 20.8997 35.6914 21.0164 35.9523 21.2497C36.2132 21.483 36.3623 21.7941 36.3623 22.183C36.3623 22.4941 36.2877 22.7275 36.1014 22.9219C35.9523 23.1164 35.7287 23.1941 35.4678 23.1941C35.2069 23.1941 34.9832 23.1164 34.7969 22.9219C34.6105 22.7275 34.536 22.4941 34.536 22.183C34.536 21.833 34.7223 21.5219 35.0205 21.2886C35.0205 21.2497 33.9396 21.483 33.4551 21.9886C33.2315 22.2219 33.0078 22.4941 32.896 22.7275C32.7842 22.9608 32.6351 23.3108 32.486 23.8164C32.337 24.283 32.2624 24.983 32.2624 25.9164V29.9219H34.1633V30.3108H28.8707V29.9219H30.5479V21.7164H28.8707V21.3275H31.0325C31.6288 21.3275 32.0388 21.133 32.2997 20.7441V23.583H32.2624Z" fill="white"/>
<path fill-rule="evenodd" clip-rule="evenodd" d="M40.9093 20.8604C41.8783 20.8604 42.8474 21.2492 43.7792 22.0659C44.8973 23.077 45.4564 24.2826 45.4564 25.7215C45.4564 27.0437 44.9718 28.1715 44.0401 29.1826C43.1083 30.1548 42.0274 30.6604 40.8347 30.6604C39.5675 30.6604 38.4493 30.1548 37.5176 29.1437C37.0703 28.677 36.6976 28.1326 36.4367 27.5492C36.1758 26.9659 36.064 26.3437 36.064 25.7992C36.064 25.1381 36.2131 24.5159 36.5485 23.8548C36.8467 23.2326 37.2939 22.6492 37.853 22.1437C38.7848 21.2881 39.8284 20.8604 40.9093 20.8604ZM43.4437 27.4326V24.1659C43.4437 23.5048 43.4064 23.0381 43.3319 22.727C43.2574 22.4548 43.1083 22.1826 42.9219 21.9492C42.4374 21.4437 41.7665 21.1715 40.8347 21.1715C39.8657 21.1715 39.1575 21.4048 38.7475 21.9104C38.263 22.377 38.0394 23.1159 38.0394 24.127V27.3548C38.0394 28.4437 38.263 29.2215 38.7475 29.6881C38.9339 29.8826 39.232 30.0381 39.6048 30.1548C40.0147 30.2715 40.4247 30.3492 40.872 30.3492C41.3565 30.3492 41.8038 30.2715 42.1765 30.1159C42.5865 29.9604 42.8474 29.7659 43.0337 29.4937C43.2946 29.0659 43.4437 28.3659 43.4437 27.4326Z" fill="white"/>
<path fill-rule="evenodd" clip-rule="evenodd" d="M48.8108 23.2329C49.0344 22.5329 49.4444 21.9884 50.0408 21.5217C50.6744 21.094 51.3453 20.8606 52.128 20.8606C53.1343 20.8606 53.917 21.1717 54.4015 21.8329C54.6624 22.1829 54.8115 22.6884 54.8861 23.3495C55.147 22.5717 55.5569 21.9884 56.1533 21.5217C56.7124 21.094 57.4205 20.8606 58.1659 20.8606C59.135 20.8606 59.9177 21.1717 60.4395 21.794C60.6631 22.0662 60.8495 22.4162 60.924 22.7273C60.9986 23.0773 61.0358 23.6217 61.0358 24.3995V29.9606H62.7131V30.3495H57.5696V29.9606H59.2468V23.1551C59.2468 21.9495 58.7623 21.3662 57.7932 21.3662C56.8987 21.3662 56.116 21.8329 55.5197 22.7662C55.1097 23.4273 54.9233 23.9717 54.9233 24.4384V30.0384H56.6005V30.4273H51.4944V30.0384H53.2088V22.8051C53.2088 22.3384 53.097 21.9495 52.8734 21.6773C52.6498 21.4051 52.3143 21.2495 51.8671 21.2495C51.2335 21.2495 50.5998 21.5217 50.0035 22.0273C49.4444 22.5717 49.0344 23.194 48.8481 24.0106V29.9995H50.488V30.3884H45.4191V29.9995H47.0591V21.7162H45.3818V21.3273H47.469C48.1772 21.3273 48.6245 21.1329 48.7735 20.7051V23.2329H48.8108Z" fill="white"/>
<mask id="mask1_634_1266" style="mask-type:alpha" maskUnits="userSpaceOnUse" x="20" y="18" width="53" height="13">
<path fill-rule="evenodd" clip-rule="evenodd" d="M20 30.7775H73V18.333H20V30.7775Z" fill="white"/>
</mask>
<g mask="url(#mask1_634_1266)">
<path fill-rule="evenodd" clip-rule="evenodd" d="M64.1295 19.3052H70.9501V18.333H64.1295V19.3052ZM69.2729 25.1386V22.9219C69.2729 22.4163 69.1984 22.0275 69.0866 21.7941C68.9375 21.5608 68.6766 21.4052 68.3039 21.2886C68.0057 21.2108 67.5957 21.1719 67.1484 21.1719C66.403 21.1719 65.8439 21.2886 65.434 21.5219C65.0612 21.7163 64.8376 21.9886 64.8376 22.2608C64.8376 22.3775 64.9122 22.4941 65.0612 22.6497C65.3594 22.883 65.5085 23.1552 65.5085 23.4663C65.5085 23.7775 65.3967 24.0108 65.2476 24.2052C65.0612 24.3997 64.8376 24.4775 64.5767 24.4775C64.2785 24.4775 64.0549 24.3608 63.8686 24.1663C63.6822 23.9719 63.5704 23.6997 63.5704 23.3497C63.5704 22.6497 63.9058 22.0663 64.5767 21.5608C65.2476 21.0552 66.0676 20.8219 66.9994 20.8219C68.0802 20.8219 69.2729 21.0163 70.1301 21.5997C70.6147 21.9108 70.7638 22.183 70.9129 22.4552C71.0247 22.7275 71.0619 23.0775 71.0619 23.5441V27.5497C71.0992 28.6775 71.1738 29.3775 71.211 29.533C71.2856 29.9219 71.5837 30.0775 71.8819 30.0775C72.2174 30.0386 72.4037 29.883 72.5901 29.1441H72.9628C72.6273 30.4275 72.0683 30.583 71.2483 30.583C70.7265 30.583 70.1674 30.3886 69.8693 30.1552C69.5711 29.883 69.3847 29.533 69.3102 29.0275C69.012 29.533 68.602 29.9219 68.0057 30.1552C67.4466 30.4275 66.8875 30.5441 66.1421 30.5441C65.0612 30.5441 64.2785 30.3108 63.7567 29.8441C63.2722 29.4163 63.0113 28.8719 63.0113 28.2886C63.0113 27.783 63.1977 27.3163 63.5331 26.8108C63.9058 26.3441 64.3158 25.9941 64.8376 25.7608C65.3967 25.5275 65.9185 25.3719 66.7385 25.2163C67.5212 25.0997 68.3039 25.0219 69.0866 25.0219H69.2729V25.1386ZM69.2729 25.4886H69.1611C67.2975 25.4886 66.1048 25.7219 65.5085 26.1886C65.0985 26.4997 64.9121 27.083 64.9121 27.8997C64.9121 28.6775 65.024 29.2608 65.3221 29.5719C65.583 29.883 66.0303 30.0775 66.7012 30.0775C67.2975 30.0775 67.8193 29.9219 68.3039 29.6497C68.7884 29.3775 69.1238 28.9886 69.3102 28.5219V25.4886H69.2729Z" fill="white"/>
</g>
<path fill-rule="evenodd" clip-rule="evenodd" d="M64.1293 19.3052H70.95V18.333H64.1293V19.3052Z" fill="white"/>
</svg>

<svg xmlns="http://www.w3.org/2000/svg" width="93" height="52" fill="none" viewBox="0 0 93 52"><path fill="#51a9a4" fill-rule="evenodd" d="M0 8a8 8 0 0 1 8-8h77a8 8 0 0 1 8 8v13.1a5.002 5.002 0 0 0 0 9.8V44a8 8 0 0 1-8 8H8a8 8 0 0 1-8-8V30.9a5.002 5.002 0 0 0 0-9.8z" clip-rule="evenodd"/><mask id="a" width="9" height="11" x="20" y="20" maskUnits="userSpaceOnUse" style="mask-type:alpha"><path fill="#fff" fill-rule="evenodd" d="M20 20.939h8.386v9.722H20z" clip-rule="evenodd"/></mask><g mask="url(#a)"><path fill="#fff" fill-rule="evenodd" d="M28.386 27.238q-.168 1.284-.783 2.1c-.708.895-1.602 1.361-2.832 1.322-1.566-.038-2.423-.622-3.43-1.633C20.485 28.172 20 26.811 20 25.8c0-.7.186-1.127.485-1.866.335-.778.708-1.167 1.192-1.672.932-.934 2.05-1.362 3.206-1.362q1.397 0 2.348.7c.484.39.745.856.745 1.4 0 .312-.112.545-.26.778-.187.195-.41.311-.672.311-.26 0-.484-.116-.67-.31-.187-.234-.299-.467-.299-.779 0-.31.15-.622.448-.972l.074-.194c0-.39-.559-.545-1.677-.584-1.156-.038-1.864.273-2.311.817-.522.622-.596 1.789-.596 3.422v1.05c0 1.167.037 2.061.298 2.645.335.739 1.118 1.166 2.273 1.166.932 0 1.715-.272 2.311-.816.597-.545.97-1.323 1.156-2.295z" clip-rule="evenodd"/></g><path fill="#fff" fill-rule="evenodd" d="M32.262 23.583c.112-.544.336-1.011.597-1.439.559-.816 1.23-1.244 2.05-1.244.447 0 .782.116 1.043.35s.41.544.41.933c0 .311-.074.544-.26.739-.15.194-.373.272-.634.272a.88.88 0 0 1-.671-.272c-.186-.195-.261-.428-.261-.739 0-.35.186-.661.484-.894 0-.04-1.08.194-1.565.7-.224.233-.447.505-.559.738-.112.234-.26.584-.41 1.09q-.224.699-.224 2.1v4.005h1.901v.389h-5.292v-.39h1.677v-8.205H28.87v-.389h2.162c.596 0 1.006-.194 1.267-.583v2.839zm8.648-2.723c.968 0 1.937.39 2.87 1.206 1.117 1.011 1.676 2.217 1.676 3.656 0 1.322-.484 2.45-1.416 3.46-.932.973-2.013 1.478-3.205 1.478-1.267 0-2.386-.505-3.317-1.516a5.7 5.7 0 0 1-1.081-1.595 4.4 4.4 0 0 1-.373-1.75c0-.66.15-1.283.484-1.944a5.6 5.6 0 0 1 1.305-1.711c.932-.856 1.975-1.284 3.056-1.284m2.534 6.573v-3.267c0-.661-.038-1.128-.112-1.439a2.2 2.2 0 0 0-.41-.778c-.485-.505-1.155-.777-2.087-.777-.97 0-1.678.233-2.087.738-.485.467-.709 1.206-.709 2.217v3.228c0 1.089.224 1.866.709 2.333.186.195.484.35.857.467.41.116.82.194 1.267.194.484 0 .932-.078 1.304-.233.41-.156.671-.35.858-.622.26-.428.41-1.128.41-2.061" clip-rule="evenodd"/><path fill="#fff" fill-rule="evenodd" d="M48.81 23.233c.224-.7.634-1.245 1.23-1.711.634-.428 1.305-.661 2.088-.661 1.006 0 1.789.31 2.273.972.261.35.41.855.485 1.517.261-.778.67-1.362 1.267-1.828a3.3 3.3 0 0 1 2.013-.661c.969 0 1.752.31 2.274.933.223.272.41.622.484.933.075.35.112.895.112 1.672v5.562h1.677v.389H57.57v-.39h1.677v-6.805c0-1.206-.485-1.789-1.454-1.789-.894 0-1.677.467-2.273 1.4-.41.661-.597 1.206-.597 1.672v5.6H56.6v.39h-5.106v-.39h1.715v-7.233c0-.467-.112-.855-.336-1.128-.223-.272-.559-.427-1.006-.427-.633 0-1.267.272-1.863.777-.56.545-.97 1.167-1.156 1.984V30h1.64v.388h-5.069V30h1.64v-8.283h-1.677v-.389h2.087c.708 0 1.155-.194 1.304-.622v2.528z" clip-rule="evenodd"/><mask id="b" width="53" height="13" x="20" y="18" maskUnits="userSpaceOnUse" style="mask-type:alpha"><path fill="#fff" fill-rule="evenodd" d="M20 30.778h53V18.333H20z" clip-rule="evenodd"/></mask><g mask="url(#b)"><path fill="#fff" fill-rule="evenodd" d="M64.13 19.305h6.82v-.972h-6.82zm5.143 5.834v-2.217c0-.506-.075-.895-.186-1.128-.15-.233-.41-.389-.783-.505-.298-.078-.708-.117-1.156-.117-.745 0-1.304.117-1.714.35-.373.194-.596.467-.596.739 0 .117.074.233.223.389q.447.35.447.816c0 .311-.111.545-.26.74a.88.88 0 0 1-.671.271.94.94 0 0 1-.708-.31c-.187-.195-.299-.467-.299-.817 0-.7.336-1.284 1.007-1.79.67-.505 1.49-.738 2.422-.738 1.081 0 2.274.194 3.131.778.485.31.634.583.783.855.112.273.149.623.149 1.09v4.005c.037 1.127.112 1.828.149 1.983.075.389.373.544.67.544.336-.038.523-.194.71-.933h.372c-.336 1.284-.895 1.439-1.715 1.439-.522 0-1.08-.194-1.379-.428-.298-.272-.484-.622-.559-1.128a2.55 2.55 0 0 1-1.304 1.128c-.56.272-1.118.39-1.864.39-1.08 0-1.864-.234-2.385-.7-.485-.429-.746-.973-.746-1.556 0-.506.187-.973.522-1.478.373-.467.783-.817 1.305-1.05.559-.233 1.08-.39 1.9-.545a16 16 0 0 1 2.349-.194h.186zm0 .35h-.112c-1.864 0-3.056.233-3.653.7-.41.31-.596.894-.596 1.71 0 .778.112 1.362.41 1.673.261.311.708.506 1.38.506.596 0 1.117-.156 1.602-.428.484-.272.82-.661 1.006-1.128v-3.033z" clip-rule="evenodd"/></g><path fill="#fff" fill-rule="evenodd" d="M64.13 19.305h6.82v-.972h-6.82z" clip-rule="evenodd"/></svg>
